X:1
T:Road to Thales
C:François Champs
M:2/2
Q:160
K:D
|: A2FA DAFA | dAAe AAf2 | A2FA DAFA | G2BG dBAG |
   A2FA DAFA | dAAe AAf2 | gage fdAc |1 dAFA D4 :|2 dAFA D2fg
|: a2af dfaf | g2ge =cege | fafd egec | ABBA BAFG |
   A2FA DAFA | dAAe AAf2 | gage fdAc |1 dAFA D2fg :| dAFA D4